X: 10883
Q: "Playfully."
M: 6/8
L: 1/8
K: Bb
d2d (dB)f | (({e}d3) c2)e | G>(cd) (ec)A | (BFd c2)F |\
d2d (dB)f | (c3 e3) {fg}| G>(cd) (ec)A | "^Fin."B3- B2 H:|
|: f |\
(f>e)d (dc)B | (cde d2)d | (d>c)B (BA)B | c3- c2f |\
(f>e)d (dc)B | (cde) d2(g/a/) | (b>a)g (gf)=e | f3- "^D.C."f2 :|


